lib/flags/l/CU.svg

<svg xmlns="http://www.w3.org/2000/svg" fill="none" viewBox="0 0 32 24"><mask id="CU_svg__a" width="32" height="24" x="0" y="0" mask-type="alpha" maskUnits="userSpaceOnUse"><path fill="#fff" d="M0 0H32V24H0z"/></mask><g mask="url(#CU_svg__a)"><path fill="#3D58DB" fill-rule="evenodd" d="M0 0V24H32V0H0Z" clip-rule="evenodd"/><mask id="CU_svg__b" width="32" height="24" x="0" y="0" mask-type="alpha" maskUnits="userSpaceOnUse"><path fill="#fff" fill-rule="evenodd" d="M0 0V24H32V0H0Z" clip-rule="evenodd"/></mask><g mask="url(#CU_svg__b)"><path fill="#3D58DB" stroke="#F7FCFF" stroke-width="4" d="M0 8H-2V10V14V16H0H32H34V14V10V8H32H0Z"/></g><path fill="#E31D1C" fill-rule="evenodd" d="M0 0V24L18 12L0 0Z" clip-rule="evenodd"/><mask id="CU_svg__c" width="18" height="24" x="0" y="0" mask-type="alpha" maskUnits="userSpaceOnUse"><path fill="#fff" fill-rule="evenodd" d="M0 0V24L18 12L0 0Z" clip-rule="evenodd"/></mask><g mask="url(#CU_svg__c)"><path fill="#F7FCFF" fill-rule="evenodd" d="M6.68777 14.2168L3.01584 16.1548L4.8035 12.2609L2.52551 10.1808L5.338 10.077L6.68777 6.55627L7.71781 10.077H10.5255L8.65412 12.2609L10.1427 16.1548L6.68777 14.2168Z" clip-rule="evenodd"/></g></g></svg>

<svg xmlns="http://www.w3.org/2000/svg" fill="none" viewBox="0 0 32 24"><mask id="CU_svg__a" width="32" height="24" x="0" y="0" maskUnits="userSpaceOnUse"><path fill="#fff" d="M0 0h32v24H0z"/></mask><g mask="url(#CU_svg__a)"><path fill="#3D58DB" fill-rule="evenodd" d="M0 0v24h32V0H0z" clip-rule="evenodd"/><mask id="CU_svg__b" width="32" height="24" x="0" y="0" maskUnits="userSpaceOnUse"><path fill="#fff" fill-rule="evenodd" d="M0 0v24h32V0H0z" clip-rule="evenodd"/></mask><g mask="url(#CU_svg__b)"><path fill="#3D58DB" stroke="#F7FCFF" stroke-width="4" d="M0 8h-2v8h36V8H0z"/></g><path fill="#E31D1C" fill-rule="evenodd" d="M0 0v24l18-12L0 0z" clip-rule="evenodd"/><mask id="CU_svg__c" width="18" height="24" x="0" y="0" maskUnits="userSpaceOnUse"><path fill="#fff" fill-rule="evenodd" d="M0 0v24l18-12L0 0z" clip-rule="evenodd"/></mask><g mask="url(#CU_svg__c)"><path fill="#F7FCFF" fill-rule="evenodd" d="M6.688 14.217l-3.672 1.938 1.787-3.894-2.277-2.08 2.812-.104 1.35-3.52 1.03 3.52h2.807l-1.87 2.184 1.488 3.894-3.455-1.938z" clip-rule="evenodd"/></g></g></svg>
